X:42
T:Through the Wood Laddie. JBu.42
O:England,South Yorkshire
S:Joshua Burnett's MS,c1835,S.Yorkshire
M:3/4
L:1/8
Q:3/4=30
R:Lament
N:Time sig. given as 9/8 in MS
Z:vmp.R.Greig.2011
K:F
FC|D2DEFG|A4FG|A2BAGF|G4FG|
A2ABAG|AGFEFG|A2ABAG|AGFEDC|
D2DEFG|A4dc|defdcA|G4AB/c/|
defdcB|cdcBAG|A2D2E2|F4:|
|:f>c|d2defg|a4fg|a2bagf|g4fg|
a2abag|agfefg|a2abag|agfedc|
d2defg|a4fg|(a/g/f/e/) (f/e/d/c/) d/c/B/A/|G4AB/c/|
defdcA|cdcBAG|A2D2E2|F4:|

